;START_OF_HEADER
;HEADER_VERSION:0.1
;FLAVOR:Griffin
;GENERATOR.NAME:Cura_SteamEngine
;GENERATOR.VERSION:2.3.1
;GENERATOR.BUILD_DATE:2016-11-04
;TARGET_MACHINE.NAME:Ultimaker 3
;EXTRUDER_TRAIN.0.INITIAL_TEMPERATURE:200
;EXTRUDER_TRAIN.0.MATERIAL.VOLUME_USED:975
;EXTRUDER_TRAIN.0.MATERIAL.GUID:d9549dba-b9df-45b9-80a5-f7140a9a2f34
;EXTRUDER_TRAIN.0.NOZZLE.DIAMETER:0.4
;EXTRUDER_TRAIN.1.INITIAL_TEMPERATURE:100
;EXTRUDER_TRAIN.1.MATERIAL.VOLUME_USED:928
;EXTRUDER_TRAIN.1.MATERIAL.GUID:3ee70a86-77d8-4b87-8005-e4a1bc57d2ce
;EXTRUDER_TRAIN.1.NOZZLE.DIAMETER:0.4
;BUILD_PLATE.INITIAL_TEMPERATURE:60
;PRINT.TIME:1084
;PRINT.SIZE.MIN.X:0
;PRINT.SIZE.MIN.Y:0
;PRINT.SIZE.MIN.Z:0
;PRINT.SIZE.MAX.X:215
;PRINT.SIZE.MAX.Y:215
;PRINT.SIZE.MAX.Z:200
;END_OF_HEADER
;Generated with Cura_SteamEngine 2.3.1

T0
G92 E0

M109 S200
G0 F15000 X181 Y2.1 Z2
G280
G1 F1500 E-6.5
;LAYER_COUNT:37
;LAYER:0
M107
M204 S625
M205 X6
G1 Z4
G0 F4285.7 X123.174 Y65.864 Z2.27
G0 X122.845 Y66.525 Z2.27
M204 S500
M205 X5
;TYPE:SKIRT
G1 Z.27
G1 F1500 E0
G1 F1200 X123.174 Y65.864 E0.01094
G1 X123.715 Y65.053 E0.02538
G1 X124.283 Y64.32 E0.03912
G1 X124.767 Y63.761 E0.05007
G1 X125.307 Y63.258 E0.061
G1 X125.677 Y62.971 E0.06794
G1 X126.274 Y62.539 E0.07885
G1 X126.895 Y62.139 E0.0898
G1 X127.748 Y61.728 E0.10382
G1 X128.413 Y61.463 E0.11443
G1 X129.113 Y61.227 E0.12537
G1 X129.835 Y61.068 E0.13632
G1 X130.569 Y60.988 E0.14726
G1 X131.308 Y60.988 E0.1582
G1 X131.689 Y61.03 E0.16388
G1 X132.066 Y60.988 E0.1695
G1 X132.804 Y60.988 E0.18043
G1 X133.539 Y61.067 E0.19138
G1 X134.26 Y61.225 E0.20232
G1 X134.968 Y61.464 E0.21339
G1 X135.635 Y61.73 E0.22402
G1 X136.305 Y62.04 E0.23496
G1 X137.117 Y62.546 E0.24913
G1 X137.712 Y62.978 E0.26002
G1 X138.285 Y63.444 E0.27097
G1 X138.964 Y64.155 E0.28553
G1 X139.434 Y64.724 E0.29646
G1 X139.873 Y65.318 E0.3074
G1 X140.347 Y66.163 E0.32176
G1 X140.661 Y66.83 E0.33268
G1 X140.939 Y67.514 E0.34361
G1 X141.19 Y68.459 E0.3581
G1 X141.328 Y69.183 E0.36901
G1 X141.427 Y69.915 E0.37996
G1 X141.446 Y70.654 E0.39091
G1 X141.396 Y71.308 E0.40062
G1 X141.26 Y72.396 E0.41687
G1 X141.129 Y73.122 E0.42779
G1 X140.92 Y73.831 E0.43874
G1 X140.672 Y74.437 E0.44844
G1 X140.36 Y75.105 E0.45936
G1 X140.011 Y75.757 E0.47032
G1 X139.595 Y76.366 E0.48124
G1 X139.295 Y76.732 E0.48825
G1 X138.682 Y77.427 E0.50198
G1 X138.164 Y77.953 E0.51292
G1 X137.592 Y78.421 E0.52387
G1 X137.209 Y78.681 E0.53072
G1 X136.584 Y79.076 E0.54168
G1 X135.939 Y79.437 E0.55262
G1 X135.269 Y79.721 E0.5634
G1 X134.771 Y79.902 E0.57125
G1 X134.065 Y80.117 E0.58219
G1 X133.339 Y80.254 E0.59313
G1 X132.602 Y80.311 E0.60408
G1 X131.864 Y80.289 E0.61502
G1 X131.677 Y80.263 E0.61781
G1 X131.314 Y80.303 E0.62322
G1 X130.576 Y80.303 E0.63416
G1 X129.841 Y80.224 E0.64511
G1 X129.12 Y80.066 E0.65604
G1 X128.415 Y79.829 E0.66706
G1 X127.747 Y79.563 E0.67771
G1 X127.077 Y79.253 E0.68865
G1 X126.26 Y78.744 E0.7029
G1 X125.664 Y78.311 E0.71382
G1 X125.091 Y77.845 E0.72476
G1 X124.418 Y77.14 E0.7392
G1 X123.948 Y76.572 E0.75012
G1 X123.508 Y75.978 E0.76107
G1 X123.136 Y75.341 E0.77199
G1 X122.857 Y74.725 E0.78201
G1 X122.454 Y73.703 E0.79829
G1 X122.22 Y73.002 E0.80923
G1 X122.064 Y72.28 E0.82017
G1 X121.982 Y71.429 E0.83284
G1 X121.951 Y70.511 E0.84645
G1 X121.966 Y69.773 E0.85738
G1 X122.105 Y68.821 E0.87163
G1 X122.223 Y68.282 E0.87981
G1 X122.42 Y67.57 E0.89075
G1 X122.625 Y67.034 E0.89925
G1 X122.845 Y66.525 E0.90746
M204 S625
M205 X6
G0 F4285.7 X123.166 Y66.664
M204 S500
M205 X5
G1 F1200 X123.488 Y66.021 E0.91812
G1 X123.992 Y65.267 E0.93155
G1 X124.56 Y64.534 E0.94529
G1 X125.031 Y63.991 E0.95594
G1 X125.56 Y63.503 E0.9666
G1 X125.882 Y63.254 E0.97263
G1 X126.479 Y62.822 E0.98354
G1 X127.085 Y62.434 E0.9942
G1 X127.878 Y62.053 E1.00723
G1 X128.543 Y61.788 E1.01784
G1 X129.225 Y61.559 E1.0285
G1 X129.928 Y61.408 E1.03915
G1 X130.644 Y61.335 E1.04981
G1 X131.364 Y61.342 E1.06047
G1 X131.654 Y61.377 E1.0648
G1 X132.347 Y61.329 E1.07509
G1 X133.065 Y61.358 E1.08574
G1 X133.776 Y61.467 E1.09639
G1 X134.471 Y61.655 E1.10706
G1 X134.839 Y61.789 E1.11286
G1 X135.506 Y62.055 E1.12349
G1 X136.158 Y62.358 E1.13415
G1 X136.911 Y62.829 E1.1473
G1 X137.506 Y63.261 E1.15819
G1 X138.064 Y63.716 E1.16886
G1 X138.694 Y64.377 E1.18239
G1 X139.164 Y64.946 E1.19332
G1 X139.591 Y65.526 E1.20399
G1 X140.03 Y66.312 E1.21732
G1 X140.344 Y66.979 E1.22824
G1 X140.614 Y67.646 E1.2389
G1 X140.846 Y68.525 E1.25237
G1 X140.984 Y69.249 E1.26329
G1 X141.08 Y69.962 E1.27395
G1 X141.095 Y70.681 E1.2846
G1 X141.049 Y71.264 E1.29326
G1 X140.913 Y72.352 E1.3095
G1 X140.784 Y73.06 E1.32016
G1 X140.578 Y73.749 E1.33082
G1 X140.355 Y74.289 E1.33947
G1 X140.043 Y74.957 E1.35039
G1 X139.702 Y75.591 E1.36106
G1 X139.294 Y76.183 E1.37171
G1 X139.032 Y76.5 E1.3778
G1 X138.419 Y77.195 E1.39153
G1 X137.914 Y77.707 E1.40218
G1 X137.355 Y78.16 E1.41284
G1 X137.022 Y78.385 E1.41879
G1 X136.397 Y78.78 E1.42974
G1 X135.769 Y79.13 E1.44039
G1 X135.15 Y79.393 E1.45036
G1 X134.652 Y79.574 E1.45821
G1 X133.963 Y79.781 E1.46886
G1 X133.255 Y79.911 E1.47953
G1 X132.538 Y79.962 E1.49017
G1 X131.819 Y79.933 E1.50083
G1 X131.704 Y79.915 E1.50256
G1 X131.033 Y79.962 E1.51252
G1 X130.315 Y79.933 E1.52317
G1 X129.604 Y79.824 E1.53382
G1 X128.909 Y79.636 E1.54449
G1 X128.545 Y79.504 E1.55022
G1 X127.877 Y79.238 E1.56087
G1 X127.224 Y78.935 E1.57154
G1 X126.466 Y78.46 E1.58479
G1 X125.87 Y78.027 E1.5957
G1 X125.313 Y77.573 E1.60635
G1 X124.687 Y76.917 E1.61978
G1 X124.217 Y76.349 E1.6307
G1 X123.79 Y75.77 E1.64136
G1 X123.43 Y75.147 E1.65201
G1 X123.182 Y74.596 E1.66097
G1 X122.779 Y73.574 E1.67724
G1 X122.553 Y72.891 E1.6879
G1 X122.404 Y72.188 E1.69854
G1 X122.332 Y71.418 E1.71
G1 X122.301 Y70.5 E1.7236
G1 X122.316 Y69.78 E1.73427
G1 X122.447 Y68.896 E1.74751
G1 X122.565 Y68.357 E1.75568
G1 X122.757 Y67.664 E1.76634
G1 X122.946 Y67.173 E1.77413
G1 X123.166 Y66.664 E1.78234
M204 S625
M205 X6
G0 F4285.7 X123.488 Y66.803
M204 S500
M205 X5
G1 F1200 X123.802 Y66.178 E1.7927
G1 X124.268 Y65.481 E1.80512
G1 X124.836 Y64.748 E1.81886
G1 X125.296 Y64.221 E1.82922
G1 X126.087 Y63.538 E1.8447
G1 X126.684 Y63.106 E1.85562
G1 X127.274 Y62.729 E1.86599
G1 X128.008 Y62.378 E1.87804
G1 X128.673 Y62.113 E1.88865
G1 X129.336 Y61.892 E1.899
G1 X130.021 Y61.747 E1.90937
G1 X130.718 Y61.682 E1.91974
G1 X131.417 Y61.697 E1.9301
G1 X131.686 Y61.734 E1.93412
G1 X131.921 Y61.7 E1.93764
G1 X132.62 Y61.681 E1.948
G1 X133.317 Y61.741 E1.95836
G1 X134.003 Y61.881 E1.96873
G1 X134.709 Y62.114 E1.97974
G1 X135.376 Y62.38 E1.99038
G1 X136.01 Y62.676 E2.00075
G1 X136.706 Y63.113 E2.01292
G1 X137.301 Y63.545 E2.02381
G1 X137.842 Y63.987 E2.03416
G1 X138.424 Y64.6 E2.04668
G1 X138.894 Y65.169 E2.05761
G1 X139.308 Y65.733 E2.06798
G1 X139.714 Y66.461 E2.08033
G1 X140.028 Y67.128 E2.09125
G1 X140.289 Y67.777 E2.10161
G1 X140.503 Y68.59 E2.11406
G1 X140.641 Y69.314 E2.12498
G1 X140.732 Y70.008 E2.13535
G1 X140.744 Y70.707 E2.1457
G1 X140.702 Y71.221 E2.15334
G1 X140.566 Y72.309 E2.16959
G1 X140.439 Y72.997 E2.17995
G1 X140.235 Y73.666 E2.19031
G1 X140.038 Y74.141 E2.19793
G1 X139.726 Y74.809 E2.20885
G1 X139.394 Y75.425 E2.21922
G1 X138.994 Y75.999 E2.22958
G1 X138.77 Y76.269 E2.23478
G1 X138.157 Y76.964 E2.2485
G1 X137.664 Y77.461 E2.25887
G1 X136.835 Y78.09 E2.27429
G1 X136.21 Y78.485 E2.28524
G1 X135.598 Y78.824 E2.29561
G1 X135.03 Y79.064 E2.30474
G1 X134.532 Y79.245 E2.31259
G1 X133.862 Y79.446 E2.32295
G1 X133.173 Y79.569 E2.33332
G1 X132.475 Y79.613 E2.34368
G1 X131.776 Y79.577 E2.35405
G1 X131.675 Y79.56 E2.35556
G1 X131.459 Y79.591 E2.3588
G1 X130.76 Y79.61 E2.36915
G1 X130.063 Y79.55 E2.37952
G1 X129.377 Y79.41 E2.38989
G1 X128.674 Y79.178 E2.40086
G1 X128.006 Y78.912 E2.41151
G1 X127.372 Y78.617 E2.42186
G1 X126.672 Y78.177 E2.43411
G1 X126.076 Y77.744 E2.44503
G1 X125.534 Y77.301 E2.45539
G1 X124.957 Y76.694 E2.4678
G1 X124.487 Y76.126 E2.47872
G1 X124.072 Y75.562 E2.48909
G1 X123.725 Y74.955 E2.49945
G1 X123.508 Y74.468 E2.50735
G1 X123.105 Y73.446 E2.52362
G1 X122.886 Y72.781 E2.53399
G1 X122.744 Y72.096 E2.54436
G1 X122.681 Y71.406 E2.55462
G1 X122.65 Y70.488 E2.56823
G1 X122.667 Y69.788 E2.5786
G1 X122.789 Y68.971 E2.59084
G1 X122.907 Y68.432 E2.59901
G1 X123.095 Y67.758 E2.60937
G1 X123.268 Y67.312 E2.61646
G1 X123.488 Y66.803 E2.62468
M204 S625
M205 X6
G0 F4285.7 X123.809 Y66.942
M204 S500
M205 X5
G1 F1200 X124.115 Y66.335 E2.63475
G1 X124.545 Y65.696 E2.64615
G1 X125.113 Y64.963 E2.65989
G1 X125.56 Y64.451 E2.66996
G1 X126.293 Y63.821 E2.68428
G1 X126.89 Y63.389 E2.69519
G1 X127.462 Y63.024 E2.70524
G1 X128.137 Y62.703 E2.71632
G1 X128.802 Y62.438 E2.72692
G1 X129.447 Y62.224 E2.73699
G1 X130.113 Y62.088 E2.74706
G1 X130.789 Y62.03 E2.75711
G1 X131.469 Y62.052 E2.76719
G1 X131.684 Y62.085 E2.77041
G1 X132.206 Y62.033 E2.77818
G1 X132.885 Y62.045 E2.78824
G1 X133.559 Y62.137 E2.79831
G1 X134.216 Y62.308 E2.80837
G1 X134.579 Y62.439 E2.81409
G1 X135.246 Y62.705 E2.82473
G1 X135.861 Y62.993 E2.83478
G1 X136.5 Y63.396 E2.84598
G1 X137.095 Y63.828 E2.85687
G1 X137.62 Y64.259 E2.86693
G1 X138.154 Y64.823 E2.87844
G1 X138.624 Y65.392 E2.88937
G1 X139.026 Y65.941 E2.89945
G1 X139.397 Y66.61 E2.91078
G1 X139.711 Y67.277 E2.9217
G1 X139.964 Y67.908 E2.93177
G1 X140.159 Y68.656 E2.94322
G1 X140.297 Y69.38 E2.95414
G1 X140.385 Y70.053 E2.96419
G1 X140.393 Y70.733 E2.97427
G1 X140.354 Y71.177 E2.98087
G1 X140.218 Y72.265 E2.99711
G1 X140.095 Y72.933 E3.00717
G1 X139.893 Y73.582 E3.01724
G1 X139.72 Y73.993 E3.02385
G1 X139.408 Y74.661 E3.03477
G1 X139.085 Y75.258 E3.04482
G1 X138.507 Y76.037 E3.05919
G1 X137.894 Y76.732 E3.07292
G1 X137.415 Y77.214 E3.08299
G1 X136.648 Y77.794 E3.09723
G1 X136.023 Y78.189 E3.10818
G1 X135.429 Y78.517 E3.11824
G1 X134.911 Y78.735 E3.12656
G1 X134.413 Y78.916 E3.13441
G1 X133.762 Y79.11 E3.14447
G1 X133.092 Y79.226 E3.15454
G1 X132.414 Y79.263 E3.1646
G1 X131.736 Y79.22 E3.17467
G1 X131.673 Y79.209 E3.17561
G1 X131.174 Y79.258 E3.18304
G1 X130.495 Y79.246 E3.1931
G1 X129.821 Y79.154 E3.20318
G1 X129.164 Y78.983 E3.21323
G1 X128.804 Y78.853 E3.2189
G1 X128.136 Y78.587 E3.22956
G1 X127.52 Y78.299 E3.23963
G1 X126.878 Y77.894 E3.25087
G1 X126.282 Y77.461 E3.26179
G1 X125.756 Y77.03 E3.27186
G1 X125.227 Y76.471 E3.28326
G1 X124.757 Y75.903 E3.29418
G1 X124.355 Y75.355 E3.30425
G1 X124.021 Y74.763 E3.31432
G1 X123.834 Y74.339 E3.32118
G1 X123.431 Y73.317 E3.33746
G1 X123.219 Y72.672 E3.34751
G1 X123.085 Y72.006 E3.35758
G1 X123.031 Y71.394 E3.36668
G1 X123 Y70.476 E3.38028
G1 X123.017 Y69.797 E3.39035
G1 X123.131 Y69.046 E3.4016
G1 X123.249 Y68.507 E3.40977
G1 X123.433 Y67.853 E3.41984
G1 X123.589 Y67.451 E3.42622
G1 X123.809 Y66.942 E3.43444
M204 S625
M205 X6
G0 F4285.7 X124.13 Y67.081
M204 S500
M205 X5
G1 F1200 X124.428 Y66.493 E3.4442
G1 X124.822 Y65.91 E3.45463
G1 X125.39 Y65.177 E3.46836
G1 X125.824 Y64.682 E3.47811
G1 X126.498 Y64.105 E3.49126
G1 X127.095 Y63.673 E3.50217
G1 X127.651 Y63.32 E3.51193
G1 X128.267 Y63.028 E3.52203
G1 X128.932 Y62.763 E3.53263
G1 X129.557 Y62.557 E3.54238
G1 X130.203 Y62.428 E3.55214
G1 X130.859 Y62.379 E3.56188
G1 X131.517 Y62.409 E3.57164
G1 X131.687 Y62.437 E3.57419
G1 X131.826 Y62.413 E3.57628
G1 X132.484 Y62.378 E3.58604
G1 X133.141 Y62.423 E3.5958
G1 X133.787 Y62.548 E3.60554
G1 X134.45 Y62.764 E3.61587
G1 X135.117 Y63.03 E3.62651
G1 X135.712 Y63.311 E3.63626
G1 X136.294 Y63.679 E3.64646
G1 X136.889 Y64.111 E3.65735
G1 X137.398 Y64.53 E3.66712
G1 X137.885 Y65.046 E3.67763
G1 X138.355 Y65.615 E3.68856
G1 X138.742 Y66.147 E3.6983
G1 X139.08 Y66.759 E3.70866
G1 X139.394 Y67.426 E3.71958
G1 X139.638 Y68.038 E3.72934
G1 X139.815 Y68.721 E3.73979
G1 X139.953 Y69.445 E3.75071
G1 X140.037 Y70.098 E3.76046
G1 X140.041 Y70.757 E3.77023
G1 X140.007 Y71.134 E3.77583
G1 X139.871 Y72.222 E3.79208
G1 X139.75 Y72.869 E3.80183
G1 X139.551 Y73.497 E3.81158
G1 X139.403 Y73.845 E3.81719
G1 X139.091 Y74.513 E3.82811
G1 X138.777 Y75.091 E3.83785
G1 X138.245 Y75.806 E3.85105
G1 X137.632 Y76.501 E3.86478
G1 X137.167 Y76.967 E3.87453
G1 X136.461 Y77.498 E3.88762
G1 X135.836 Y77.893 E3.89857
G1 X135.259 Y78.21 E3.90832
G1 X134.791 Y78.406 E3.91584
G1 X134.293 Y78.587 E3.92369
G1 X133.662 Y78.774 E3.93344
G1 X133.012 Y78.883 E3.9432
G1 X132.355 Y78.912 E3.95294
G1 X131.698 Y78.862 E3.9627
G1 X131.673 Y78.857 E3.96308
G1 X131.554 Y78.878 E3.96487
G1 X130.896 Y78.913 E3.97463
G1 X130.239 Y78.868 E3.98439
G1 X129.593 Y78.743 E3.99413
G1 X128.933 Y78.528 E4.00442
G1 X128.265 Y78.262 E4.01507
G1 X127.669 Y77.982 E4.02482
G1 X127.083 Y77.611 E4.0351
G1 X126.487 Y77.178 E4.04601
G1 X125.979 Y76.759 E4.05576
G1 X125.496 Y76.248 E4.06618
G1 X125.026 Y75.68 E4.0771
G1 X124.638 Y75.148 E4.08685
G1 X124.317 Y74.573 E4.09661
G1 X124.159 Y74.211 E4.10246
G1 X123.756 Y73.189 E4.11873
G1 X123.552 Y72.563 E4.12849
G1 X123.426 Y71.917 E4.13824
G1 X123.381 Y71.382 E4.14619
G1 X123.35 Y70.464 E4.1598
G1 X123.368 Y69.806 E4.16955
G1 X123.473 Y69.121 E4.17981
G1 X123.591 Y68.582 E4.18799
G1 X123.77 Y67.948 E4.19775
G1 X123.91 Y67.59 E4.20344
G1 X124.13 Y67.081 E4.21165
M204 S625
M205 X6
G0 F4285.7 X124.452 Y67.22
M204 S500
M205 X5
G1 F1200 X124.74 Y66.652 E4.22109
G1 X125.098 Y66.124 E4.23054
G1 X125.666 Y65.391 E4.24427
G1 X126.087 Y64.914 E4.2537
G1 X126.703 Y64.389 E4.26569
G1 X127.3 Y63.957 E4.2766
G1 X127.838 Y63.616 E4.28604
G1 X128.396 Y63.354 E4.29517
G1 X129.061 Y63.089 E4.30577
G1 X129.667 Y62.89 E4.31522
G1 X130.292 Y62.77 E4.32465
G1 X130.927 Y62.728 E4.33408
G1 X131.563 Y62.766 E4.34352
G1 X131.698 Y62.792 E4.34555
G1 X132.116 Y62.738 E4.3518
G1 X132.753 Y62.738 E4.36123
G1 X133.385 Y62.817 E4.37067
G1 X134.002 Y62.974 E4.3801
G1 X134.32 Y63.089 E4.38511
G1 X134.987 Y63.355 E4.39574
G1 X135.563 Y63.628 E4.40519
G1 X136.089 Y63.962 E4.41442
G1 X136.684 Y64.394 E4.42531
G1 X137.175 Y64.8 E4.43475
G1 X137.615 Y65.269 E4.44427
G1 X138.085 Y65.838 E4.45521
G1 X138.459 Y66.354 E4.46465
G1 X138.764 Y66.908 E4.47401
G1 X139.078 Y67.575 E4.48493
G1 X139.312 Y68.168 E4.49438
G1 X139.471 Y68.787 E4.50384
G1 X139.609 Y69.511 E4.51476
G1 X139.689 Y70.143 E4.5242
G1 X139.66 Y71.09 E4.53823
G1 X139.524 Y72.178 E4.55448
G1 X139.405 Y72.804 E4.56392
G1 X139.086 Y73.697 E4.57796
G1 X138.774 Y74.365 E4.58888
G1 X138.469 Y74.924 E4.59832
G1 X137.982 Y75.574 E4.61035
G1 X137.369 Y76.269 E4.62408
G1 X136.919 Y76.719 E4.6335
G1 X136.274 Y77.202 E4.64544
G1 X135.649 Y77.597 E4.65639
G1 X135.091 Y77.903 E4.66582
G1 X134.672 Y78.077 E4.67254
G1 X134.174 Y78.258 E4.68039
G1 X133.563 Y78.437 E4.68982
G1 X132.934 Y78.539 E4.69926
G1 X132.297 Y78.561 E4.7087
G1 X131.663 Y78.503 E4.71813
G1 X131.66 Y78.502 E4.71818
G1 X131.264 Y78.553 E4.72409
G1 X130.627 Y78.553 E4.73353
G1 X129.995 Y78.474 E4.74296
G1 X129.378 Y78.317 E4.7524
G1 X129.062 Y78.203 E4.75737
G1 X128.394 Y77.937 E4.76802
G1 X127.819 Y77.665 E4.77745
G1 X127.289 Y77.328 E4.78675
G1 X126.693 Y76.895 E4.79766
G1 X126.202 Y76.489 E4.8071
G1 X125.766 Y76.024 E4.81654
G1 X125.296 Y75.456 E4.82746
G1 X124.922 Y74.941 E4.83689
G1 X124.615 Y74.383 E4.84633
G1 X124.485 Y74.083 E4.85117
G1 X124.082 Y73.061 E4.86744
G1 X123.886 Y72.455 E4.87688
G1 X123.767 Y71.829 E4.88632
G1 X123.731 Y71.37 E4.89314
G1 X123.7 Y70.452 E4.90674
G1 X123.718 Y69.816 E4.91617
G1 X123.814 Y69.196 E4.92546
G1 X123.932 Y68.657 E4.93364
G1 X124.107 Y68.044 E4.94308
G1 X124.232 Y67.729 E4.9481
G1 X124.452 Y67.22 E4.95631
M204 S625
M205 X6
G0 F4285.7 X124.773 Y67.358
M204 S500
M205 X5
G1 F1200 X125.053 Y66.811 E4.96542
G1 X125.375 Y66.339 E4.97388
G1 X125.943 Y65.606 E4.98762
G1 X126.35 Y65.146 E4.99671
G1 X126.908 Y64.672 E5.00756
G1 X127.505 Y64.24 E5.01848
G1 X128.025 Y63.913 E5.02758
G1 X128.526 Y63.679 E5.03577
G1 X129.191 Y63.414 E5.04637
G1 X129.775 Y63.224 E5.05547
G1 X130.379 Y63.111 E5.06457
G1 X130.993 Y63.078 E5.07368
G1 X131.606 Y63.125 E5.08279
G1 X131.692 Y63.143 E5.08409
G1 X131.784 Y63.124 E5.08548
G1 X132.397 Y63.078 E5.09459
G1 X133.011 Y63.113 E5.1037
G1 X133.615 Y63.226 E5.1128
G1 X134.19 Y63.414 E5.12176
G1 X134.857 Y63.68 E5.1324
G1 X135.412 Y63.944 E5.1415
G1 X135.883 Y64.246 E5.14979
